X:1
T:Mr. James McGrigor's (Tealing House)
T:Mr. James McGrigor's (Tealing House)
T:Alexander Walker
C:Alexander Walker
L:1/8
M:2/2
K:D
V:1 treble 
V:1
 F | A2 AF EDEF | DFEF DB,B,A, | A2 AF EDEA | dfeg fdd :| f | afab{a} d'2 d'c' | babd' beea | %8
 fedc B2 Bd | AFEF DA,A,C | D2 AF d2 dc | defe dcBA | GBGE FAFD | GB Ag fdd || %14

